img/svg/trust.svg

<?xml version="1.0" encoding="UTF-8"?>
<svg width="60px" height="60px" viewBox="0 0 60 60" version="1.1" xmlns="http://www.w3.org/2000/svg" xmlns:xlink="http://www.w3.org/1999/xlink">
    <!-- Generator: Sketch 52.6 (67491) - http://www.bohemiancoding.com/sketch -->
    <title>confianza1</title>
    <desc>Created with Sketch.</desc>
    <g id="Quentia-Index-1.5" stroke="none" stroke-width="1" fill="none" fill-rule="evenodd">
        <g id="index-MENU-CLICKED-2" transform="translate(-976.000000, -1565.000000)" fill="#F2DAC3">
            <g id="Group-9-Copy" transform="translate(913.000000, 1563.000000)">
                <g id="confianza1" transform="translate(63.000000, 2.000000)">
                    <path d="M16.453125,56.4375 C16.21875,56.203125 15.9375,56.109375 15.65625,56.109375 C15.375,56.109375 15.046875,56.25 14.859375,56.4375 C14.625,56.671875 14.53125,56.953125 14.53125,57.234375 C14.53125,57.515625 14.671875,57.84375 14.859375,58.03125 C15.046875,58.21875 15.375,58.359375 15.65625,58.359375 C15.9375,58.359375 16.265625,58.21875 16.453125,58.03125 C16.6875,57.796875 16.78125,57.515625 16.78125,57.234375 C16.78125,56.953125 16.640625,56.625 16.453125,56.4375 Z" id="Path"></path>
                    <path d="M6.1875,42.84375 C5.765625,42.375 5.015625,42.328125 4.546875,42.796875 C4.078125,43.21875 4.03125,43.96875 4.5,44.4375 C4.734375,44.671875 5.015625,44.8125 5.34375,44.8125 C5.625,44.8125 5.90625,44.71875 6.140625,44.484375 C6.5625,44.015625 6.609375,43.3125 6.1875,42.84375 Z" id="Path"></path>
                    <path d="M55.59375,40.96875 C54.234375,38.8125 51.515625,38.0625 49.265625,39.234375 L37.546875,45.09375 C36.984375,45.375 36.75,46.078125 37.03125,46.640625 C37.3125,47.203125 38.015625,47.4375 38.578125,47.15625 L50.296875,41.296875 C51.515625,40.6875 52.921875,41.109375 53.671875,42.234375 C54.046875,42.84375 54.1875,43.59375 54,44.296875 C53.8125,45 53.34375,45.5625 52.734375,45.9375 L37.03125,54.515625 C35.109375,55.59375 32.90625,56.15625 30.703125,56.15625 L20.34375,56.15625 C19.6875,56.15625 19.171875,56.671875 19.171875,57.328125 C19.171875,57.984375 19.6875,58.5 20.34375,58.5 L30.609375,58.5 C33.1875,58.5 35.765625,57.84375 38.0625,56.578125 L53.765625,48 C54.9375,47.34375 55.828125,46.21875 56.15625,44.90625 C56.53125,43.5 56.296875,42.09375 55.59375,40.96875 Z" id="Path"></path>
                    <path d="M33.046875,45.234375 L28.21875,41.390625 C25.734375,39.421875 22.59375,38.296875 19.40625,38.296875 L11.109375,38.296875 C11.109375,37.640625 10.59375,37.125 9.9375,37.125 L1.59375,37.125 C0.9375,37.125 0.421875,37.640625 0.421875,38.296875 C0.421875,38.953125 0.9375,39.46875 1.59375,39.46875 L8.8125,39.46875 L8.8125,57.234375 L1.59375,57.234375 C0.9375,57.234375 0.421875,57.75 0.421875,58.40625 C0.421875,59.0625 0.9375,59.578125 1.59375,59.578125 L9.984375,59.578125 C10.640625,59.578125 11.15625,59.0625 11.15625,58.40625 L11.15625,40.640625 L19.453125,40.640625 C22.125,40.640625 24.75,41.53125 26.859375,43.21875 L31.6875,47.0625 C32.25,47.53125 32.53125,48.1875 32.4375,48.9375 C32.34375,49.640625 31.875,50.25 31.21875,50.53125 C30.609375,50.765625 29.90625,50.71875 29.34375,50.34375 L23.15625,46.265625 C22.640625,45.890625 21.890625,46.078125 21.5625,46.59375 C21.1875,47.109375 21.375,47.859375 21.890625,48.1875 L28.078125,52.265625 C28.78125,52.734375 29.625,52.96875 30.46875,52.96875 C31.03125,52.96875 31.59375,52.875 32.109375,52.640625 C33.5625,52.03125 34.546875,50.765625 34.78125,49.265625 C34.875,47.671875 34.265625,46.171875 33.046875,45.234375 Z" id="Path"></path>
                    <path d="M58.40625,20.53125 L51.1875,20.53125 L51.1875,2.71875 L58.40625,2.71875 C59.0625,2.71875 59.578125,2.203125 59.578125,1.546875 C59.578125,0.890625 59.0625,0.375 58.40625,0.375 L50.015625,0.375 C49.359375,0.375 48.84375,0.890625 48.84375,1.546875 L48.84375,19.3125 L40.59375,19.3125 C37.921875,19.3125 35.296875,18.421875 33.1875,16.734375 L28.359375,12.890625 C27.796875,12.421875 27.515625,11.765625 27.609375,11.015625 C27.703125,10.3125 28.171875,9.703125 28.828125,9.421875 C29.4375,9.1875 30.140625,9.234375 30.703125,9.609375 L36.890625,13.6875 C37.40625,14.0625 38.15625,13.875 38.484375,13.359375 C38.859375,12.84375 38.671875,12.09375 38.15625,11.765625 L31.96875,7.6875 C30.796875,6.890625 29.25,6.75 27.9375,7.265625 C26.484375,7.875 25.5,9.140625 25.265625,10.640625 C25.03125,12.1875 25.640625,13.6875 26.859375,14.625 L31.6875,18.46875 C34.171875,20.4375 37.3125,21.5625 40.5,21.5625 L48.796875,21.5625 C48.796875,22.21875 49.3125,22.734375 49.96875,22.734375 L58.359375,22.734375 C59.015625,22.734375 59.53125,22.21875 59.53125,21.5625 C59.578125,21.046875 59.0625,20.53125 58.40625,20.53125 Z" id="Path"></path>
                    <path d="M45.609375,1.921875 C45.375,1.6875 45.09375,1.59375 44.8125,1.59375 C44.53125,1.59375 44.203125,1.734375 44.015625,1.921875 C43.78125,2.15625 43.6875,2.4375 43.6875,2.71875 C43.6875,3.046875 43.828125,3.328125 44.015625,3.515625 C44.25,3.75 44.53125,3.84375 44.8125,3.84375 C45.09375,3.84375 45.421875,3.703125 45.609375,3.515625 C45.796875,3.375 45.9375,3.046875 45.9375,2.765625 C45.9375,2.484375 45.796875,2.15625 45.609375,1.921875 Z" id="Path"></path>
                    <path d="M39.796875,1.59375 L29.390625,1.59375 C26.8125,1.59375 24.234375,2.25 21.9375,3.515625 L6.234375,12.09375 C5.0625,12.75 4.171875,13.875 3.84375,15.1875 C3.515625,16.5 3.75,17.90625 4.453125,19.03125 C5.390625,20.484375 6.984375,21.328125 8.578125,21.328125 C9.328125,21.328125 10.078125,21.140625 10.78125,20.8125 L22.5,14.953125 C23.0625,14.671875 23.296875,13.96875 23.015625,13.40625 C22.734375,12.84375 22.03125,12.609375 21.46875,12.890625 L9.75,18.75 C8.53125,19.359375 7.125,18.9375 6.375,17.8125 C6,17.203125 5.859375,16.453125 6.046875,15.75 C6.234375,15.046875 6.703125,14.484375 7.3125,14.109375 L23.015625,5.53125 C24.9375,4.453125 27.140625,3.890625 29.34375,3.890625 L39.75,3.890625 C40.40625,3.890625 40.921875,3.375 40.921875,2.71875 C40.921875,2.0625 40.453125,1.59375 39.796875,1.59375 Z" id="Path"></path>
                    <path d="M56.0625,15.09375 C55.640625,14.625 54.890625,14.578125 54.421875,15 C53.953125,15.421875 53.90625,16.171875 54.328125,16.640625 C54.5625,16.875 54.890625,17.015625 55.171875,17.015625 C55.453125,17.015625 55.734375,16.921875 55.96875,16.734375 C56.4375,16.3125 56.484375,15.5625 56.0625,15.09375 Z" id="Path"></path>
                    <path d="M33.1875,23.296875 C32.0625,23.296875 30.9375,23.671875 30,24.328125 C29.0625,23.671875 27.9375,23.296875 26.8125,23.296875 C23.765625,23.296875 21.234375,25.828125 21.234375,28.96875 C21.234375,30.796875 22.59375,32.859375 25.453125,35.296875 C27.375,36.984375 29.296875,38.203125 29.390625,38.25 C29.578125,38.390625 29.8125,38.4375 30,38.4375 C30.1875,38.4375 30.421875,38.390625 30.609375,38.25 C30.703125,38.203125 32.625,36.984375 34.546875,35.296875 C37.359375,32.859375 38.765625,30.796875 38.765625,28.96875 C38.765625,25.828125 36.28125,23.296875 33.1875,23.296875 Z M30,35.90625 C27.140625,33.984375 23.53125,30.796875 23.53125,28.96875 C23.53125,27.09375 24.984375,25.59375 26.765625,25.59375 C27.65625,25.59375 28.5,25.96875 29.109375,26.625 C29.34375,26.859375 29.625,27 29.953125,27 C30.28125,27 30.5625,26.859375 30.796875,26.625 C31.40625,25.96875 32.25,25.59375 33.140625,25.59375 C34.921875,25.59375 36.375,27.09375 36.375,28.96875 C36.46875,30.796875 32.859375,33.984375 30,35.90625 Z" id="Shape" fill-rule="nonzero"></path>
                </g>
            </g>
        </g>
    </g>
</svg>

<svg width="60" height="60" viewBox="0 0 60 60" xmlns="http://www.w3.org/2000/svg"><title>confianza1</title><g fill="#F2DAC3" fill-rule="evenodd"><path d="M16.453 56.438a1.098 1.098 0 0 0-.797-.329c-.281 0-.61.141-.797.328a1.098 1.098 0 0 0-.328.797c0 .282.14.61.328.797.188.188.516.328.797.328s.61-.14.797-.328c.235-.234.328-.515.328-.797 0-.28-.14-.609-.328-.797zM6.188 42.844a1.133 1.133 0 0 0-1.641-.047 1.133 1.133 0 0 0-.047 1.64c.234.235.516.376.844.376.281 0 .562-.094.797-.329.421-.468.468-1.172.046-1.64zM55.594 40.969c-1.36-2.157-4.078-2.907-6.328-1.735l-11.72 5.86a1.163 1.163 0 0 0-.515 1.547c.282.562.985.797 1.547.515l11.719-5.86c1.219-.608 2.625-.187 3.375.938.375.61.516 1.36.328 2.063-.188.703-.656 1.266-1.266 1.64l-15.703 8.579a12.994 12.994 0 0 1-6.328 1.64h-10.36a1.16 1.16 0 0 0-1.171 1.172 1.16 1.16 0 0 0 1.172 1.172h10.265c2.578 0 5.157-.656 7.453-1.922L53.767 48c1.172-.656 2.062-1.781 2.39-3.094.375-1.406.14-2.812-.562-3.937z"/><path d="M33.047 45.234l-4.828-3.843c-2.485-1.97-5.625-3.094-8.813-3.094H11.11a1.16 1.16 0 0 0-1.171-1.172H1.594a1.16 1.16 0 0 0-1.172 1.172 1.16 1.16 0 0 0 1.172 1.172h7.218v17.765H1.595a1.16 1.16 0 0 0-1.172 1.172 1.16 1.16 0 0 0 1.172 1.172h8.39a1.16 1.16 0 0 0 1.172-1.172V40.641h8.297c2.672 0 5.297.89 7.406 2.578l4.828 3.843c.563.47.844 1.126.75 1.876a2.04 2.04 0 0 1-1.218 1.593 2.052 2.052 0 0 1-1.875-.187l-6.188-4.078c-.515-.375-1.265-.188-1.593.328-.375.515-.188 1.265.328 1.593l6.187 4.079a4.321 4.321 0 0 0 2.39.703c.563 0 1.126-.094 1.641-.328 1.453-.61 2.438-1.875 2.672-3.375.094-1.594-.515-3.094-1.734-4.032zM58.406 20.531h-7.218V2.72h7.218a1.16 1.16 0 0 0 1.172-1.172A1.16 1.16 0 0 0 58.406.375h-8.39a1.16 1.16 0 0 0-1.172 1.172v17.765h-8.25a11.86 11.86 0 0 1-7.407-2.578l-4.828-3.843c-.562-.47-.843-1.125-.75-1.875a2.04 2.04 0 0 1 1.22-1.594 2.052 2.052 0 0 1 1.874.187l6.188 4.079c.515.374 1.265.187 1.593-.329.375-.515.188-1.265-.328-1.593L31.97 7.687c-1.172-.796-2.719-.937-4.032-.421-1.453.609-2.437 1.875-2.671 3.375a4.191 4.191 0 0 0 1.593 3.984l4.828 3.844c2.485 1.968 5.625 3.093 8.813 3.093h8.297a1.16 1.16 0 0 0 1.172 1.172h8.39a1.16 1.16 0 0 0 1.172-1.172c.047-.515-.468-1.03-1.125-1.03z"/><path d="M45.61 1.922a1.098 1.098 0 0 0-.797-.328c-.282 0-.61.14-.797.328a1.098 1.098 0 0 0-.328.797c0 .328.14.61.328.797.234.234.515.328.797.328.28 0 .609-.14.796-.328.188-.141.328-.47.328-.75 0-.282-.14-.61-.328-.844zM39.797 1.594H29.39c-2.578 0-5.157.656-7.453 1.922L6.233 12.094c-1.171.656-2.062 1.781-2.39 3.094a5.014 5.014 0 0 0 .61 3.843c.937 1.453 2.53 2.297 4.124 2.297.75 0 1.5-.187 2.203-.515l11.719-5.86c.563-.281.797-.984.516-1.547a1.163 1.163 0 0 0-1.547-.515L9.75 18.75c-1.219.61-2.625.188-3.375-.938-.375-.609-.516-1.359-.328-2.062.187-.703.656-1.266 1.266-1.64L23.015 5.53a12.994 12.994 0 0 1 6.328-1.64H39.75a1.16 1.16 0 0 0 1.172-1.172c0-.656-.469-1.125-1.125-1.125zM56.063 15.094A1.177 1.177 0 0 0 54.422 15a1.177 1.177 0 0 0-.094 1.64c.234.235.563.376.844.376s.562-.094.797-.282a1.177 1.177 0 0 0 .093-1.64z"/><path d="M33.188 23.297c-1.126 0-2.25.375-3.188 1.031-.938-.656-2.063-1.031-3.188-1.031-3.046 0-5.578 2.531-5.578 5.672 0 1.828 1.36 3.89 4.22 6.328 1.921 1.687 3.843 2.906 3.937 2.953.187.14.422.188.609.188.188 0 .422-.047.61-.188.093-.047 2.015-1.266 3.937-2.953 2.812-2.438 4.219-4.5 4.219-6.328 0-3.14-2.485-5.672-5.578-5.672zM30 35.907c-2.86-1.923-6.469-5.11-6.469-6.938 0-1.875 1.453-3.375 3.235-3.375.89 0 1.734.375 2.343 1.031.235.234.516.375.844.375.328 0 .61-.14.844-.375a3.195 3.195 0 0 1 2.344-1.031c1.78 0 3.234 1.5 3.234 3.375.094 1.828-3.516 5.015-6.375 6.937z" fill-rule="nonzero"/></g></svg>
